X:1
T:Far and Near
T:Far and Near
T: James Bowman Overton Clemm
T:James Oren Thompson, 1885
T:Public Domain Courtesy of the Cyber Hymnal™
C:James Bowman Overton Clemm
Z:Public Domain
Z:Courtesy of the Cyber Hymnal™
%%score ( 1 2 ) ( 3 4 )
L:1/8
Q:1/4=140
M:3/4
K:Ab
V:1 treble 
V:2 treble 
V:3 bass 
V:4 bass 
V:1
 [Ec]4 [Ec]2 | (c2 B2) [EA]2 | [FA]4 [FA]2 | (B2 A2) [DF]2 | [CE]4 [CE]2 | [CA]4 [CA]2 | %6
w: 1.~Far and|near * the|fields are|teem- * ing|With the|waves of|
w: 2.~Send them|forth * with|morn’s first|beam- * ing,|Send them|in the|
w: 3.~O thou,|whom * thy|Lord is|send- * ing,|Ga- ther|now the|
 (c3 B) [=DA]2 | [EB]6 | [Ec]4 [Ec]2 | (c2 B2) [EA]2 | [FA]4 [FA]2 | (B2 A2) [DF]2 | [CE]4 [CA]2 | %13
w: rip- * ened|grain;|Far and|near * their|gold is|gleam- * ing|O’er the|
w: noon- * tide’s|glare;|When the|sun’s * last|rays are|gleam- * ing,|Bid them|
w: sheaves * of|gold;|Heav’n- ward|then * at|ev- ening|wend- * ing,|Thou shalt|
 (c2 e2) [Fd]2 | [Ec]4 [DB]2 | [CA]6 ||"^Refrain" [Ae]4 [Ac]2 | [Ae]4 [Ec]2 | [Gd]4 [Gd]2 | %19
w: sun- * ny|slope and|plain.||||
w: ga- * ther|ev- ery-|where.|Lord of|har- vest,|send forth|
w: come * with|joy un-|told.||||
 ([Gd]3 [Ac]) [GB]2 | [Ac]4 (cd) | [Ae]4 [Ae]2 | (f2 e2) [Ac]2 | [GB]6 | [Ec]4 [Ec]2 | %25
w: ||||||
w: reap- * ers!|Hear us, *|Lord, to|Thee * we|cry;|Send them|
w: ||||||
 (c2 B2) [EA]2 | [FA]4 [FA]2 | (B2 A2) [DF]2 | [CE]4 [CA]2 | (c2 e2) [Fd]2 | [Ec]4 [DB]2 | [CA]6 |] %32
w: |||||||
w: now * the|sheaves to|ga- * ther|Ere the|har- * vest|time pass|by.|
w: |||||||
V:2
 x6 | E4 x2 | x6 | F4 x2 | x6 | x6 | E4 x2 | x6 | x6 | E4 x2 | x6 | F4 x2 | x6 | E4 x2 | x6 | x6 || %16
 x6 | x6 | x6 | x6 | x4 A2 | x6 | A4 x2 | x6 | x6 | E4 x2 | x6 | F4 x2 | x6 | E4 x2 | x6 | x6 |] %32
V:3
 [A,,A,]4 [A,,A,]2 | ([A,,A,]2 [B,,G,]2) [C,A,]2 | [D,A,]4 [D,D]2 | [D,D]4 [D,A,]2 | %4
 [A,,A,]4 [A,,A,]2 | [A,,E,]4 [A,,E,]2 | A,3 [G,B,] [F,B,]2 | [E,G,]6 | [A,,A,]4 [A,,A,]2 | %9
 ([A,,A,]2 [B,,G,]2) [C,A,]2 | [D,A,]4 [D,D]2 | [D,D]4 [D,A,]2 | [A,,A,]4 [A,,A,]2 | A,4 [D,A,]2 | %14
 [E,A,]4 [E,G,]2 | [A,,A,]6 || [A,C]4 [A,E]2 | [A,C]4 A,2 | [E,B,]4 [E,B,]2 | [E,E]4 [E,E]2 | %20
 [A,E]4 (EB,) | [A,C]4 [A,C]2 | (D2 C2) [A,E]2 | [E,E]6 | [A,,A,]4 [A,,A,]2 | %25
 ([A,,A,]2 [B,,G,]2) [C,A,]2 | [D,A,]4 [D,D]2 | [D,D]4 [D,A,]2 | [A,,A,]4 [A,,A,]2 | A,4 [D,A,]2 | %30
 [E,A,]4 [E,G,]2 | [A,,A,]6 |] %32
V:4
 x6 | x6 | x6 | x6 | x6 | x6 | A,3 x3 | x6 | x6 | x6 | x6 | x6 | x6 | (A,,2 C,2) x2 | x6 | x6 || %16
 x6 | x6 | x6 | x6 | x4 A,2 | x6 | F,4 x2 | x6 | x6 | x6 | x6 | x6 | x6 | A,,2 C,2 x2 | x6 | x6 |] %32

